svgs/regular/dice-one.svg

<svg xmlns="http://www.w3.org/2000/svg" viewBox="0 0 448 512"><!-- Font Awesome Pro 6.0.0-alpha2 by @fontawesome - https://fontawesome.com License - https://fontawesome.com/license (Commercial License) --><path d="M224 224C206.375 224 192 238.375 192 256S206.375 288 224 288S256 273.625 256 256S241.625 224 224 224ZM384 32H64C28.625 32 0 60.625 0 96V416C0 451.375 28.625 480 64 480H384C419.375 480 448 451.375 448 416V96C448 60.625 419.375 32 384 32ZM400 416C400 424.875 392.875 432 384 432H64C55.125 432 48 424.875 48 416V96C48 87.125 55.125 80 64 80H384C392.875 80 400 87.125 400 96V416Z "></path></svg>

<svg xmlns="http://www.w3.org/2000/svg" viewBox="0 0 448 512"><!-- Font Awesome Pro 5.15.1 by @fontawesome - https://fontawesome.com License - https://fontawesome.com/license (Commercial License) --><path d="M384 32H64C28.65 32 0 60.65 0 96v320c0 35.35 28.65 64 64 64h320c35.35 0 64-28.65 64-64V96c0-35.35-28.65-64-64-64zm16 384c0 8.82-7.18 16-16 16H64c-8.82 0-16-7.18-16-16V96c0-8.82 7.18-16 16-16h320c8.82 0 16 7.18 16 16v320zM224 224c-17.67 0-32 14.33-32 32s14.33 32 32 32 32-14.33 32-32-14.33-32-32-32z"/></svg>
